packages/kaspersky-hexa-ui-icons/src/iconsSVGs/16/AlignmentRight.svg

<svg width="16" height="16" viewBox="0 0 16 16" fill="none" xmlns="http://www.w3.org/2000/svg">
<path d="M14 12.0166C14.359 12.0166 14.6504 12.308 14.6504 12.667C14.6502 13.0258 14.3589 13.3174 14 13.3174H4L3.86914 13.3037C3.57299 13.2432 3.34976 12.981 3.34961 12.667C3.34961 12.3529 3.57292 12.0909 3.86914 12.0303L4 12.0166H14Z" fill="black"/>
<path d="M14 7.34961C14.359 7.34961 14.6504 7.64102 14.6504 8C14.6504 8.35898 14.359 8.65039 14 8.65039H6.66699L6.53613 8.63672C6.23972 8.57627 6.0166 8.31426 6.0166 8C6.0166 7.68574 6.23972 7.42373 6.53613 7.36328L6.66699 7.34961H14Z" fill="black"/>
<path d="M14 2.68262C14.3589 2.68262 14.6502 2.97417 14.6504 3.33301C14.6504 3.69199 14.359 3.9834 14 3.9834H2L1.86914 3.96973C1.57292 3.90914 1.34961 3.64714 1.34961 3.33301C1.34976 3.019 1.57299 2.75683 1.86914 2.69629L2 2.68262H14Z" fill="black"/>
</svg>

<svg xmlns="http://www.w3.org/2000/svg" width="16" height="16" fill="none" viewBox="0 0 16 16"><path fill="#000" fill-rule="evenodd" d="M14.6504 3.333A.651.651 0 0 0 14 2.6826H2l-.1308.0137a.651.651 0 0 0-.5196.6367c0 .3141.2233.5761.5196.6367L2 3.9834h12a.6507.6507 0 0 0 .6504-.6504M14 7.3496c.359 0 .6504.2914.6504.6504A.6507.6507 0 0 1 14 8.6504H6.667l-.1309-.0137A.65.65 0 0 1 6.0166 8a.65.65 0 0 1 .5195-.6367l.1309-.0137zm0 4.667c.359 0 .6504.2914.6504.6504a.651.651 0 0 1-.6504.6504H4l-.1309-.0137a.651.651 0 0 1-.5195-.6367.6506.6506 0 0 1 .5195-.6367l.131-.0137z"/></svg>
